Sweet-Rainbow/icons/audacious.svg

<?xml version="1.0" encoding="UTF-8" standalone="no"?>
<!-- Generator: Gravit.io -->

<svg
   xmlns:dc="http://purl.org/dc/elements/1.1/"
   xmlns:cc="http://creativecommons.org/ns#"
   xmlns:rdf="http://www.w3.org/1999/02/22-rdf-syntax-ns#"
   xmlns:svg="http://www.w3.org/2000/svg"
   xmlns="http://www.w3.org/2000/svg"
   xmlns:sodipodi="http://sodipodi.sourceforge.net/DTD/sodipodi-0.dtd"
   xmlns:inkscape="http://www.inkscape.org/namespaces/inkscape"
   style="isolation:isolate"
   viewBox="0 0 36 36"
   width="48"
   height="48"
   version="1.1"
   id="svg9"
   sodipodi:docname="audacious.svg"
   inkscape:version="0.92.4 (5da689c313, 2019-01-14)">
  <metadata
     id="metadata15">
    <rdf:RDF>
      <cc:Work
         rdf:about="">
        <dc:format>image/svg+xml</dc:format>
        <dc:type
           rdf:resource="http://purl.org/dc/dcmitype/StillImage" />
        <dc:title></dc:title>
      </cc:Work>
    </rdf:RDF>
  </metadata>
  <defs
     id="defs13" />
  <sodipodi:namedview
     pagecolor="#ffffff"
     bordercolor="#666666"
     borderopacity="1"
     objecttolerance="10"
     gridtolerance="10"
     guidetolerance="10"
     inkscape:pageopacity="0"
     inkscape:pageshadow="2"
     inkscape:window-width="640"
     inkscape:window-height="480"
     id="namedview11"
     showgrid="false"
     inkscape:zoom="29.365243"
     inkscape:cx="25.325443"
     inkscape:cy="32"
     inkscape:current-layer="svg9"
     units="px" />
  <linearGradient
     id="_lgradient_2"
     x1="0"
     y1="0.5"
     x2="1"
     y2="0.5"
     gradientTransform="scale(48)"
     gradientUnits="userSpaceOnUse">
    <stop
       offset="0%"
       stop-opacity="1"
       style="stop-color:rgb(0,255,169)"
       id="stop2" />
    <stop
       offset="100%"
       stop-opacity="1"
       style="stop-color:rgb(240,116,179)"
       id="stop4" />
  </linearGradient>
  <g
     id="g826"
     transform="scale(0.75)">
    <path
       id="path7"
       d="m 24.399,25.302 c 1.269,0 2.27,0.932 2.27,2.092 0,1.161 -1.001,2.119 -2.27,2.119 -1.269,0 -2.317,-0.958 -2.317,-2.119 0,-1.161 1.048,-2.092 2.317,-2.092 z m 0.733,-12.851 c -0.365,-0.014 -0.738,0.007 -1.123,0.025 -2.286,0.104 -6.33,0.018 -7.908,1.972 -0.964,1.195 -0.515,3.973 0.962,4.261 1.841,0.36 4.952,-0.532 6.946,-0.313 1.391,0.153 1.797,1.327 0.664,2.142 -1.199,0.863 -3.921,0.601 -5.295,1.035 -4.752,1.498 -6.459,4.673 -5.296,8.975 0.759,2.806 3.445,4.888 6.374,5.006 5.635,-0.013 4.583,-2.998 7.312,-1.445 0.898,1.088 2.707,1.437 3.645,0.673 1.508,-1.229 3.781,-1.887 2.178,-4.402 -0.768,-1.205 1.022,-2.766 0.619,-8.76 -0.357,-5.317 -3.599,-8.965 -9.078,-9.169 z M 4.99,30.22 v 0 c 0.342,1.049 -0.231,2.178 -1.28,2.52 v 0 C 2.661,33.082 1.532,32.509 1.19,31.46 v 0 C 0.4,29.06 0,26.55 0,24.03 0,15.68 4.34,7.9 11.46,3.54 15.22,1.23 19.56,0 23.97,0 32.32,0 40.1,4.34 44.46,11.46 46.77,15.22 48,19.55 48,23.97 48,32.32 43.66,40.1 36.54,44.46 32.78,46.77 28.45,48 24.03,48 18.39,48 12.92,46.02 8.59,42.41 v 0 C 7.746,41.698 7.634,40.432 8.34,39.585 v 0 c 0.706,-0.847 1.97,-0.957 2.82,-0.245 v 0 C 14.77,42.35 19.32,44 24.03,44 27.7,44 31.31,42.98 34.45,41.05 40.38,37.41 44,30.93 44,23.97 44,20.29 42.98,16.69 41.05,13.55 37.41,7.62 30.93,4 23.97,4 20.3,4 16.69,5.02 13.55,6.95 7.62,10.59 4,17.07 4,24.03 c 0,2.1 0.33,4.19 0.99,6.19 z"
       inkscape:connector-curvature="0"
       style="fill:url(#_lgradient_2);fill-rule:evenodd" />
  </g>
</svg>

<?xml version="1.0" encoding="UTF-8" standalone="no"?>
<!-- Generator: Gravit.io -->
<svg xmlns="http://www.w3.org/2000/svg" xmlns:xlink="http://www.w3.org/1999/xlink" style="isolation:isolate" viewBox="0 0 48 48" width="48pt" height="48pt"><linearGradient id="_lgradient_2" x1="0" y1="0.5" x2="1" y2="0.5" gradientTransform="matrix(48,0,0,48,0,0)" gradientUnits="userSpaceOnUse"><stop offset="0%" stop-opacity="1" style="stop-color:rgb(0,255,169)"/><stop offset="100%" stop-opacity="1" style="stop-color:rgb(240,116,179)"/></linearGradient><path d=" M 24.399 25.302 C 25.668 25.302 26.669 26.234 26.669 27.394 C 26.669 28.555 25.668 29.513 24.399 29.513 C 23.13 29.513 22.082 28.555 22.082 27.394 C 22.082 26.233 23.13 25.302 24.399 25.302 L 24.399 25.302 Z  M 25.132 12.451 C 24.767 12.437 24.394 12.458 24.009 12.476 C 21.723 12.58 17.679 12.494 16.101 14.448 C 15.137 15.643 15.586 18.421 17.063 18.709 C 18.904 19.069 22.015 18.177 24.009 18.396 C 25.4 18.549 25.806 19.723 24.673 20.538 C 23.474 21.401 20.752 21.139 19.378 21.573 C 14.626 23.071 12.919 26.246 14.082 30.548 C 14.841 33.354 17.527 35.436 20.456 35.554 C 26.091 35.541 25.039 32.556 27.768 34.109 C 28.666 35.197 30.475 35.546 31.413 34.782 C 32.921 33.553 35.194 32.895 33.591 30.38 C 32.823 29.175 34.613 27.614 34.21 21.62 C 33.853 16.303 30.611 12.655 25.132 12.451 L 25.132 12.451 L 25.132 12.451 Z  M 4.99 30.22 L 4.99 30.22 C 5.332 31.269 4.759 32.398 3.71 32.74 L 3.71 32.74 C 2.661 33.082 1.532 32.509 1.19 31.46 L 1.19 31.46 C 0.4 29.06 0 26.55 0 24.03 C 0 15.68 4.34 7.9 11.46 3.54 C 15.22 1.23 19.56 0 23.97 0 C 32.32 0 40.1 4.34 44.46 11.46 C 46.77 15.22 48 19.55 48 23.97 C 48 32.32 43.66 40.1 36.54 44.46 C 32.78 46.77 28.45 48 24.03 48 C 18.39 48 12.92 46.02 8.59 42.41 L 8.59 42.41 C 7.746 41.698 7.634 40.432 8.34 39.585 L 8.34 39.585 C 9.046 38.738 10.31 38.628 11.16 39.34 L 11.16 39.34 C 14.77 42.35 19.32 44 24.03 44 C 27.7 44 31.31 42.98 34.45 41.05 C 40.38 37.41 44 30.93 44 23.97 C 44 20.29 42.98 16.69 41.05 13.55 C 37.41 7.62 30.93 4 23.97 4 C 20.3 4 16.69 5.02 13.55 6.95 C 7.62 10.59 4 17.07 4 24.03 C 4 26.13 4.33 28.22 4.99 30.22 Z " fill-rule="evenodd" fill="url(#_lgradient_2)"/></svg>
